X:1
T:St. Stephen and Herod
M:6/4
L:1/4
K:D
 A| A2 A F2 A| B2 c d2 B| A2 A A2 A| A3- A z A| A2 A F2 A| B2 B G2 B|\
 A2 A A2 A| F3- F z||
